source/images/clients/house-trip.svg

<svg xmlns="http://www.w3.org/2000/svg" viewBox="0 0 268 268" enable-background="new 0 0 268 268"><path fill="#1D1D1B" d="M112.8 86.5c-9.8-9.8-25.8-9.8-35.6.1-9.8 9.8-9.9 25.8-.1 35.6l18 17.7 17.6-17.8c9.9-9.9 10-25.8.1-35.6zm-17.8 34.5c-9.2 0-16.7-7.5-16.7-16.7s7.5-16.7 16.7-16.7 16.7 7.5 16.7 16.7c0 9.3-7.5 16.7-16.7 16.7zM243.8 130.1v-8.8h-23.3v-10.7h22.8v-8.8h-22.8v-9.9h23.3v-8.9h-33.3v47h33.3zm-55.2.8c12.6 0 18.8-6.5 18.8-15.1 0-17.6-27-12.6-27-20 0-2.8 2.4-4.7 6.6-4.7 4.8 0 9.9 1.6 13.7 5.1l5.6-7.5c-4.7-4.3-10.9-6.6-18.3-6.6-11.1 0-17.8 6.5-17.8 14.3 0 17.7 27.1 12 27.1 20.2 0 2.7-2.6 5.2-8.2 5.2-6.5 0-11.6-3-14.9-6.4l-5.5 7.8c4.3 4.7 10.8 7.7 19.9 7.7m-43.8 0c14.3 0 21.2-8 21.2-19.7v-28.2h-10.2v28c0 6.6-3.7 11.1-11 11.1s-11.1-4.5-11.1-11.1v-28h-10.2v28.2c.1 11.7 7 19.7 21.3 19.7m-78.3-.8v-47.1h-10.1v18.5h-22.2v-18.5h-10v47h10v-19.8h22.2v19.8h10.1zM107.3 103.5l-12.4-12-12.2 12h2.3v10.4h19.9v-10.4zM145.8 141.8h-22m-37.9 21.5h-10.6v-12.7h10.6c4 0 7 2.4 7 6.3 0 4-3 6.4-7 6.4m17.6 25.6l-10.7-17.9c5.1-1.2 10.4-5.7 10.4-14 0-8.8-6.1-15.2-15.9-15.2h-22v47.1h10v-16.7h6.7l9.9 16.7h11.6zm-55.5 0v-38.3h13.7v-8.8h-37.5v8.8h13.8v38.3h10z"/><g fill="#1D1D1B"><path d="M145.3 141.8h-22v47.1h10v-16.8h12c10.2 0 15.8-6.9 15.8-15.1 0-8.3-5.6-15.2-15.8-15.2zm-1.4 21.4h-10.6v-12.6h10.6c4 0 7 2.4 7 6.4 0 3.8-3 6.2-7 6.2zM107.8 141.8h10v47.1h-10z"/></g></svg>

<?xml version="1.0" encoding="utf-8"?>
<!-- Generator: Adobe Illustrator 18.1.0, SVG Export Plug-In . SVG Version: 6.00 Build 0)  -->
<!DOCTYPE svg PUBLIC "-//W3C//DTD SVG 1.1//EN" "http://www.w3.org/Graphics/SVG/1.1/DTD/svg11.dtd">
<svg version="1.1" id="Layer_1" xmlns="http://www.w3.org/2000/svg" xmlns:xlink="http://www.w3.org/1999/xlink" x="0px" y="0px"
	 viewBox="0 0 268 268" enable-background="new 0 0 268 268" xml:space="preserve">
<path fill="#1D1D1B" d="M112.8,86.5c-9.8-9.8-25.8-9.8-35.6,0.1c-9.8,9.8-9.9,25.8-0.1,35.6l18,17.7l17.6-17.8
	C122.6,112.2,122.7,96.3,112.8,86.5z M95,121c-9.2,0-16.7-7.5-16.7-16.7c0-9.2,7.5-16.7,16.7-16.7c9.2,0,16.7,7.5,16.7,16.7
	C111.7,113.6,104.2,121,95,121z"/>
<g>
	<g>
		<path fill="#1D1D1B" d="M243.8,130.1v-8.8h-23.3v-10.7h22.8v-8.8h-22.8v-9.9h23.3V83h-33.3v47H243.8z M188.6,130.9
			c12.6,0,18.8-6.5,18.8-15.1c0-17.6-27-12.6-27-20c0-2.8,2.4-4.7,6.6-4.7c4.8,0,9.9,1.6,13.7,5.1l5.6-7.5
			c-4.7-4.3-10.9-6.6-18.3-6.6c-11.1,0-17.8,6.5-17.8,14.3c0,17.7,27.1,12,27.1,20.2c0,2.7-2.6,5.2-8.2,5.2c-6.5,0-11.6-3-14.9-6.4
			l-5.5,7.8C173,127.9,179.5,130.9,188.6,130.9 M144.8,130.9c14.3,0,21.2-8,21.2-19.7V83h-10.2V111c0,6.6-3.7,11.1-11,11.1
			c-7.3,0-11.1-4.5-11.1-11.1V83h-10.2v28.2C123.6,122.9,130.5,130.9,144.8,130.9 M66.5,130.1V83H56.4v18.5H34.2V83h-10v47h10v-19.8
			h22.2v19.8H66.5z"/>
	</g>
	<polygon fill="#1D1D1B" points="107.3,103.5 94.9,91.5 82.7,103.5 85,103.5 85,113.9 104.9,113.9 104.9,103.5 	"/>
	<g>
		<path fill="#1D1D1B" d="M145.8,141.8h-22 M85.9,163.3H75.3v-12.7h10.6c4,0,7,2.4,7,6.3C92.9,160.9,89.9,163.3,85.9,163.3
			 M103.5,188.9l-10.7-17.9c5.1-1.2,10.4-5.7,10.4-14c0-8.8-6.1-15.2-15.9-15.2h-22v47.1h10v-16.7h6.7l9.9,16.7H103.5z M48,188.9
			v-38.3h13.7v-8.8H24.2v8.8h13.8v38.3H48z"/>
	</g>
	<g>
		<path fill="#1D1D1B" d="M145.3,141.8h-22v47.1h10v-16.8h12c10.2,0,15.8-6.9,15.8-15.1C161.1,148.7,155.5,141.8,145.3,141.8z
			 M143.9,163.2h-10.6v-12.6h10.6c4,0,7,2.4,7,6.4C150.9,160.8,147.9,163.2,143.9,163.2z"/>
		<rect x="107.8" y="141.8" fill="#1D1D1B" width="10" height="47.1"/>
	</g>
</g>
</svg>
